Adwaita++-Light/panel/16/dropboxstatus-busy2.svg

<svg height="16" width="16" xmlns="http://www.w3.org/2000/svg">
  <path d="m4.4472656 1 .0019532.0039062-4.4414063 2.5039063 3.9921875 2.4785156-4 3.0175781 4.4492188 2.4960938 3.5507812-2.4902344-4-3.0097656 4-2.4921875 4 2.5058594-1.736328 1.3007812c.555557-.2069257 1.143487-.3134011 1.736328-.3144531.613322.00171 1.221095.1162466 1.792969.3378906l-1.792969-1.3417968 3.990234-2.4902344-4.439453-2.5058594-3.550781 2.4921875zm7.5527344 7c-2.209 0-4 1.7909999-4 4 0 2.209 1.791 4 4 4s4-1.791 4-4c0-2.2090001-1.791-4-4-4zm0 1v1a2 2 0 0 0 -2 2h-1a3 3 0 0 1 3-3zm-4.7871094 1.5625-2.7636718 1.939453-.8886719-.498047v.371094l4.4394531 2.625.0058594-.001953c-.6508023-.864166-1.0037471-1.916196-1.0058594-2.998047.0005819-.486977.072303-.971257.2128906-1.4375zm6.7871094 1.4375h1a3 3 0 0 1 -3 3v-1a2 2 0 0 0 2-2z" fill="#444"/>
</svg>

<svg xmlns="http://www.w3.org/2000/svg" width="16" height="16" version="1.1">
 <defs>
  <style id="current-color-scheme" type="text/css">
   .ColorScheme-Text { color:#444444; } .ColorScheme-Highlight { color:#4285f4; }
  </style>
 </defs>
 <path style="fill:currentColor" class="ColorScheme-Text" d="M 4.4472656 1 L 4.4492188 1.0039062 L 0.0078125 3.5078125 L 4 5.9863281 L 0 9.0039062 L 4.4492188 11.5 L 8 9.0097656 L 4 6 L 8 3.5078125 L 12 6.0136719 L 10.263672 7.3144531 C 10.819229 7.1075274 11.407159 7.001052 12 7 C 12.613322 7.00171 13.221095 7.1162466 13.792969 7.3378906 L 12 5.9960938 L 15.990234 3.5058594 L 11.550781 1 L 8 3.4921875 L 4.4472656 1 z M 12 8 C 9.791 8 8 9.7909999 8 12 C 8 14.209 9.791 16 12 16 C 14.209 16 16 14.209 16 12 C 16 9.7909999 14.209 8 12 8 z M 12 9 L 12 10 A 2 2 0 0 0 10 12 L 9 12 A 3 3 0 0 1 12 9 z M 7.2128906 10.5625 L 4.4492188 12.501953 L 3.5605469 12.003906 L 3.5605469 12.375 L 8 15 L 8.0058594 14.998047 C 7.3550571 14.133881 7.0021123 13.081851 7 12 C 7.0005819 11.513023 7.072303 11.028743 7.2128906 10.5625 z M 14 12 L 15 12 A 3 3 0 0 1 12 15 L 12 14 A 2 2 0 0 0 14 12 z"/>
</svg>
